packages/blockchain-info-components/src/Images/img/yodlee-connect.svg

<svg fill="none" height="104" viewBox="0 0 287 104" width="287" xmlns="http://www.w3.org/2000/svg" xmlns:xlink="http://www.w3.org/1999/xlink"><filter id="a" color-interpolation-filters="sRGB" filterUnits="userSpaceOnUse" height="109.823" width="109.823" x="89.0884" y="0"><feFlood flood-opacity="0" result="BackgroundImageFix"/><feColorMatrix in="SourceAlpha" type="matrix" values="0 0 0 0 0 0 0 0 0 0 0 0 0 0 0 0 0 0 127 0"/><feOffset dy="4"/><feGaussianBlur stdDeviation="2"/><feColorMatrix type="matrix" values="0 0 0 0 0 0 0 0 0 0 0 0 0 0 0 0 0 0 0.25 0"/><feBlend in2="BackgroundImageFix" mode="normal" result="effect1_dropShadow"/><feBlend in="SourceGraphic" in2="effect1_dropShadow" mode="normal" result="shape"/></filter><filter id="b" color-interpolation-filters="sRGB" filterUnits="userSpaceOnUse" height="64" width="64" x="223" y="23"><feFlood flood-opacity="0" result="BackgroundImageFix"/><feColorMatrix in="SourceAlpha" type="matrix" values="0 0 0 0 0 0 0 0 0 0 0 0 0 0 0 0 0 0 127 0"/><feOffset dy="4"/><feGaussianBlur stdDeviation="2"/><feColorMatrix type="matrix" values="0 0 0 0 0 0 0 0 0 0 0 0 0 0 0 0 0 0 0.25 0"/><feBlend in2="BackgroundImageFix" mode="normal" result="effect1_dropShadow"/><feBlend in="SourceGraphic" in2="effect1_dropShadow" mode="normal" result="shape"/></filter><filter id="c" color-interpolation-filters="sRGB" filterUnits="userSpaceOnUse" height="64" width="64" x="0" y="23"><feFlood flood-opacity="0" result="BackgroundImageFix"/><feColorMatrix in="SourceAlpha" type="matrix" values="0 0 0 0 0 0 0 0 0 0 0 0 0 0 0 0 0 0 127 0"/><feOffset dy="4"/><feGaussianBlur stdDeviation="2"/><feColorMatrix type="matrix" values="0 0 0 0 0 0 0 0 0 0 0 0 0 0 0 0 0 0 0.25 0"/><feBlend in2="BackgroundImageFix" mode="normal" result="effect1_dropShadow"/><feBlend in="SourceGraphic" in2="effect1_dropShadow" mode="normal" result="shape"/></filter><clipPath id="d"><path d="m130 28h28v46.6783h-28z"/></clipPath><clipPath id="e"><path d="m237 33h36v36h-36z"/></clipPath><rect fill="#0c6cf2" height="2" rx="1" width="171" x="58" y="50"/><g filter="url(#a)"><rect fill="#0074bd" height="72" rx="16" transform="matrix(.70710678 .70710678 -.70710678 .70710678 42.176624 -101.823376)" width="72" x="144"/><g clip-path="url(#d)" fill="#fff"><path d="m143.511 40.3591 1.851-.5935 10.404-3.3865-25.766-8.3791v7.9601z"/><path d="m130 38.2644v6.4938l9.985-3.2469z"/><path d="m145.781 51.3216-3.527 1.187-12.219 3.9452h-.035v7.9601l12.499-4.0499 11.975-3.9102 3.526-1.1521v-7.9252l-12.185 3.9451z"/><path d="m158 37.1123-12.219 3.9801-3.527 1.1521-.104.0349h-.035l-12.08 3.9102-.035.0349v2.3043 5.6209l8.693-2.793v-.0349l3.561-1.1521 12.22-3.9452.035-.0349 3.491-1.1172v-.0349z"/><path d="m145.815 61.586-15.815 5.1322v7.9601l28-9.1122v-7.9252z"/></g></g><g filter="url(#b)"><rect fill="#fff" height="56" rx="8" width="56" x="227" y="23"/><g clip-path="url(#e)"><path d="m246 48.1875v8.3125h3.375v-8.3125zm6.75 0v8.3125h3.375v-8.3125zm-9 14.25h21.375v-3.5625h-21.375zm15.75-14.25v8.3125h3.375v-8.3125zm-5.062-10.6875-10.688 5.9375v2.375h21.375v-2.375z" fill="#121d33"/></g><rect height="54" rx="7" stroke="#f0f2f7" stroke-width="2" width="54" x="228" y="24"/></g><g filter="url(#c)"><rect fill="#fff" height="56" rx="8" width="56" x="4" y="23"/><path d="m18.738 46.6292-1.46 1.46c-.4041.3882-.7256.854-.9452 1.3695s-.3328 1.0701-.3328 1.6305c0 .5603.1132 1.1149.3328 1.6304s.5411.9814.9452 1.3696l11.762 11.878c.2788.2852.6032.5218.96.7v-14.398z" fill="#3d89f5"/><path d="m45.262 46.6292 1.46 1.46c.4041.3882.7256.854.9452 1.3695s.3328 1.0701.3328 1.6305c0 .5603-.1132 1.1149-.3328 1.6304s-.5411.9814-.9452 1.3696l-11.762 11.878c-.2788.2852-.6032.5218-.96.7v-14.398z" fill="#1656b9"/><path d="m42.4382 43.6493-7.36-7.38c-.3896-.4016-.8559-.7209-1.3712-.9389-.5154-.2181-1.0692-.3304-1.6288-.3304-.5595 0-1.1134.1123-1.6287.3304-.5153.218-.9816.5373-1.3713.9389l-7.38 7.38 10.34 5.16z" fill="#85b5f8"/><rect height="54" rx="7" stroke="#f0f2f7" stroke-width="2" width="54" x="5" y="24"/></g></svg>

<svg width="287" height="104" viewBox="0 0 287 104" fill="none" xmlns="http://www.w3.org/2000/svg">
<rect x="58" y="50" width="171" height="2" rx="1" fill="#0C6CF2"/>
<g filter="url(#filter0_d)">
<rect x="144" width="72" height="72" rx="16" transform="rotate(45 144 0)" fill="#0074BD"/>
<g clip-path="url(#clip0)">
<path d="M143.511 40.3591L145.362 39.7656L155.766 36.3791L130 28V35.9601L143.511 40.3591Z" fill="white"/>
<path d="M130 38.2644V44.7582L139.985 41.5113L130 38.2644Z" fill="white"/>
<path d="M145.781 51.3216L142.254 52.5086L130.035 56.4538H130V64.4139L142.499 60.364L154.474 56.4538L158 55.3017V47.3765L145.815 51.3216H145.781Z" fill="white"/>
<path d="M158 37.1123L145.781 41.0924L142.254 42.2445L142.15 42.2794H142.115L130.035 46.1896L130 46.2245V48.5288V54.1497L138.693 51.3567V51.3218L142.254 50.1697L154.474 46.2245L154.509 46.1896L158 45.0724V45.0375V37.1123Z" fill="white"/>
<path d="M145.815 61.586L130 66.7182V74.6783L158 65.5661V57.6409L145.815 61.586Z" fill="white"/>
</g>
</g>
<g filter="url(#filter1_d)">
<rect x="227" y="23" width="56" height="56" rx="8" fill="white"/>
<g clip-path="url(#clip1)">
<path d="M246 48.1875V56.5H249.375V48.1875H246ZM252.75 48.1875V56.5H256.125V48.1875H252.75ZM243.75 62.4375H265.125V58.875H243.75V62.4375ZM259.5 48.1875V56.5H262.875V48.1875H259.5ZM254.438 37.5L243.75 43.4375V45.8125H265.125V43.4375L254.438 37.5Z" fill="#121D33"/>
</g>
<rect x="228" y="24" width="54" height="54" rx="7" stroke="#F0F2F7" stroke-width="2"/>
</g>
<g filter="url(#filter2_d)">
<rect x="4" y="23" width="56" height="56" rx="8" fill="white"/>
<path d="M18.738 46.6292L17.278 48.0892C16.8739 48.4774 16.5524 48.9432 16.3328 49.4587C16.1132 49.9742 16 50.5288 16 51.0892C16 51.6495 16.1132 52.2041 16.3328 52.7196C16.5524 53.2351 16.8739 53.701 17.278 54.0892L29.04 65.9672C29.3188 66.2524 29.6432 66.489 30 66.6672V52.2692L18.738 46.6292Z" fill="#3D89F5"/>
<path d="M45.262 46.6292L46.722 48.0892C47.1261 48.4774 47.4476 48.9432 47.6672 49.4587C47.8868 49.9742 48 50.5288 48 51.0892C48 51.6495 47.8868 52.2041 47.6672 52.7196C47.4476 53.2351 47.1261 53.701 46.722 54.0892L34.96 65.9672C34.6812 66.2524 34.3568 66.489 34 66.6672V52.2692L45.262 46.6292Z" fill="#1656B9"/>
<path d="M42.4382 43.6493L35.0782 36.2693C34.6886 35.8677 34.2223 35.5484 33.707 35.3304C33.1916 35.1123 32.6378 35 32.0782 35C31.5187 35 30.9648 35.1123 30.4495 35.3304C29.9342 35.5484 29.4679 35.8677 29.0782 36.2693L21.6982 43.6493L32.0382 48.8093L42.4382 43.6493Z" fill="#85B5F8"/>
<rect x="5" y="24" width="54" height="54" rx="7" stroke="#F0F2F7" stroke-width="2"/>
</g>
<defs>
<filter id="filter0_d" x="89.0884" y="0" width="109.823" height="109.823" filterUnits="userSpaceOnUse" color-interpolation-filters="sRGB">
<feFlood flood-opacity="0" result="BackgroundImageFix"/>
<feColorMatrix in="SourceAlpha" type="matrix" values="0 0 0 0 0 0 0 0 0 0 0 0 0 0 0 0 0 0 127 0"/>
<feOffset dy="4"/>
<feGaussianBlur stdDeviation="2"/>
<feColorMatrix type="matrix" values="0 0 0 0 0 0 0 0 0 0 0 0 0 0 0 0 0 0 0.25 0"/>
<feBlend mode="normal" in2="BackgroundImageFix" result="effect1_dropShadow"/>
<feBlend mode="normal" in="SourceGraphic" in2="effect1_dropShadow" result="shape"/>
</filter>
<filter id="filter1_d" x="223" y="23" width="64" height="64" filterUnits="userSpaceOnUse" color-interpolation-filters="sRGB">
<feFlood flood-opacity="0" result="BackgroundImageFix"/>
<feColorMatrix in="SourceAlpha" type="matrix" values="0 0 0 0 0 0 0 0 0 0 0 0 0 0 0 0 0 0 127 0"/>
<feOffset dy="4"/>
<feGaussianBlur stdDeviation="2"/>
<feColorMatrix type="matrix" values="0 0 0 0 0 0 0 0 0 0 0 0 0 0 0 0 0 0 0.25 0"/>
<feBlend mode="normal" in2="BackgroundImageFix" result="effect1_dropShadow"/>
<feBlend mode="normal" in="SourceGraphic" in2="effect1_dropShadow" result="shape"/>
</filter>
<filter id="filter2_d" x="0" y="23" width="64" height="64" filterUnits="userSpaceOnUse" color-interpolation-filters="sRGB">
<feFlood flood-opacity="0" result="BackgroundImageFix"/>
<feColorMatrix in="SourceAlpha" type="matrix" values="0 0 0 0 0 0 0 0 0 0 0 0 0 0 0 0 0 0 127 0"/>
<feOffset dy="4"/>
<feGaussianBlur stdDeviation="2"/>
<feColorMatrix type="matrix" values="0 0 0 0 0 0 0 0 0 0 0 0 0 0 0 0 0 0 0.25 0"/>
<feBlend mode="normal" in2="BackgroundImageFix" result="effect1_dropShadow"/>
<feBlend mode="normal" in="SourceGraphic" in2="effect1_dropShadow" result="shape"/>
</filter>
<clipPath id="clip0">
<rect width="28" height="46.6783" fill="white" transform="translate(130 28)"/>
</clipPath>
<clipPath id="clip1">
<rect width="36" height="36" fill="white" transform="translate(237 33)"/>
</clipPath>
</defs>
</svg>
